libs/ui/packages/crypto-icons/src/svg/FSN.svg

<svg width="24" height="24" viewBox="0 0 24 24" fill="none">
<path fill-rule="evenodd" clip-rule="evenodd" d="M21.7492 10.659C20.9925 9.86854 19.4377 9.20703 16.5382 8.80128C15.624 8.67328 14.7061 8.57348 13.7857 8.50204C13.071 8.45929 12.3772 8.41654 11.7052 8.41654C10.5915 10.0815 9.54075 12.0893 8.616 14.502C7.60725 17.1495 6.70425 19.755 6.07425 22.125H5.88525C5.94825 19.584 6.36825 16.7018 7.23 13.7123C7.79775 11.7698 8.46975 10.0605 9.2265 8.56653C5.8215 8.92953 3.384 9.97579 2.25 11.4698C3.21675 9.09979 6.09525 7.09278 10.4872 6.38853C12.8197 2.90778 15.5723 1.34853 17.8628 2.03253C18.6607 2.26728 19.3335 2.77953 19.8802 3.50553C19.8165 3.46278 19.7535 3.42003 19.6702 3.39903C17.9887 2.71578 15.7192 3.69753 13.5127 6.13203H13.6177C18.5557 6.11103 21.0562 8.20354 21.75 10.659H21.7492ZM15.5715 13.8615C16.9162 13.8615 18.009 14.9933 18.009 16.3815C18.009 17.769 16.9162 18.9008 15.5715 18.9008C14.2267 18.9008 13.134 17.769 13.134 16.3808C13.134 14.9723 14.2267 13.8615 15.5715 13.8615Z" fill="#1D9AD7"/>
</svg>

<svg width="24" height="24" viewBox="0 0 24 24" fill="none"><path fill="#1d9ad7" fill-rule="evenodd" d="M21.75 10.659c-.758-.79-2.312-1.452-5.212-1.858a45 45 0 0 0-2.752-.299c-.715-.043-1.409-.085-2.08-.085-1.114 1.665-2.165 3.672-3.09 6.085-1.009 2.647-1.912 5.253-2.542 7.623h-.189c.063-2.541.483-5.423 1.345-8.413.568-1.942 1.24-3.652 1.996-5.145-3.405.363-5.842 1.409-6.976 2.903.967-2.37 3.845-4.377 8.237-5.081 2.333-3.481 5.085-5.04 7.376-4.356.798.234 1.47.747 2.017 1.473a.7.7 0 0 0-.21-.107c-1.681-.683-3.95.299-6.157 2.733h.105c4.938-.021 7.438 2.072 8.132 4.527m-6.178 3.202c1.344 0 2.437 1.132 2.437 2.52s-1.093 2.52-2.437 2.52c-1.345 0-2.438-1.132-2.438-2.52 0-1.409 1.093-2.52 2.438-2.52" clip-rule="evenodd"/></svg>
